X: 25
T: Connaughtman's Rambles, The
Z: UPipes & harp
S: https://thesession.org/tunes/19#setting49346
R: jig
M: 6/8
L: 1/8
K: Dmaj
|:FAA dAA|BAB dAG|FAA def|edB BAG|
FAA dAA|BAB def|gfe f2e|1 dBA BAG:|2 dBA B2 g||
|:fbb faa|fef deg|fbb faa|fed e2 g|
fbb faa|fef def|gfe f2 e|1 dBA B2 g:|2 dBA BAG||

